Obsidian-SemiLight/actions/22s/games-solve.svg

<svg viewBox="0 0 22 22" xmlns="http://www.w3.org/2000/svg"><path d="m11 3c-4.4319968 0-8 3.5680032-8 8 0 4.431997 3.5680032 8 8 8 4.431997 0 8-3.568003 8-8 0-4.4319968-3.568003-8-8-8zm0 1c3.877998 0 7 3.1220024 7 7 0 3.877998-3.122002 7-7 7-3.8779976 0-7-3.122002-7-7 0-3.8779976 3.1220024-7 7-7zm3 4-5 5-2-2-1 1 3 3 6-6z" fill="#4d4d4d"/></svg>

<svg xmlns="http://www.w3.org/2000/svg" viewBox="0 0 22 22">
  <defs id="defs3051">
    <style type="text/css" id="current-color-scheme">
      .ColorScheme-Text {
        color:#4d4d4d;
      }
      </style>
  </defs>
 <path 
    style="fill:currentColor;fill-opacity:1;stroke:none" 
    d="M 11 3 C 6.5680032 3 3 6.5680032 3 11 C 3 15.431997 6.5680032 19 11 19 C 15.431997 19 19 15.431997 19 11 C 19 6.5680032 15.431997 3 11 3 z M 11 4 C 14.877998 4 18 7.1220024 18 11 C 18 14.877998 14.877998 18 11 18 C 7.1220024 18 4 14.877998 4 11 C 4 7.1220024 7.1220024 4 11 4 z M 14 8 L 9 13 L 7 11 L 6 12 L 9 15 L 15 9 L 14 8 z "
    class="ColorScheme-Text"
    />  
</svg>
